src/images/icon-light-bulb.svg

<svg width="35" height="39" viewBox="0 0 35 39" fill="none" xmlns="http://www.w3.org/2000/svg">
<g clip-path="url(#clip0)">
<path d="M12.975 28.6761C12.5388 22.4611 7.74131 25.6231 7.19614 17.2275C6.86903 11.8848 11.7756 7.63245 17.4454 7.63245C23.1151 7.63245 28.0217 11.9938 27.6946 17.2275C27.1494 24.4237 23.6603 23.0063 22.3519 26.7134" stroke="#999999" stroke-width="1.44" stroke-miterlimit="22.9256" stroke-linecap="round" stroke-linejoin="round"/>
<path d="M13.1934 35.9813L22.3522 33.5825" stroke="#999999" stroke-width="1.44" stroke-miterlimit="22.9256" stroke-linecap="round" stroke-linejoin="round"/>
<path d="M13.1934 32.4923L22.3522 30.0935" stroke="#999999" stroke-width="1.44" stroke-miterlimit="22.9256" stroke-linecap="round" stroke-linejoin="round"/>
<path d="M13.1934 29.0031L22.3522 26.6044" stroke="#999999" stroke-width="1.44" stroke-miterlimit="22.9256" stroke-linecap="round" stroke-linejoin="round"/>
<path d="M20.826 34.891C20.826 36.5265 19.2995 37.7259 17.555 37.7259C16.3556 37.7259 15.3743 37.1807 14.8291 36.4175" stroke="#999999" stroke-width="1.44" stroke-miterlimit="22.9256" stroke-linecap="round" stroke-linejoin="round"/>
<path d="M17.7725 0.763184V3.92518" stroke="#999999" stroke-width="1.44" stroke-miterlimit="22.9256" stroke-linecap="round" stroke-linejoin="round"/>
<path d="M29.112 5.12463L26.8223 7.30532" stroke="#999999" stroke-width="1.44" stroke-miterlimit="22.9256" stroke-linecap="round" stroke-linejoin="round"/>
<path d="M34.2372 17.1184H31.0752" stroke="#999999" stroke-width="1.44" stroke-miterlimit="22.9256" stroke-linecap="round" stroke-linejoin="round"/>
<path d="M28.5674 28.7851L26.3867 26.6044" stroke="#999999" stroke-width="1.44" stroke-miterlimit="22.9256" stroke-linecap="round" stroke-linejoin="round"/>
<path d="M6.32422 5.12463L8.5049 7.30532" stroke="#999999" stroke-width="1.44" stroke-miterlimit="22.9256" stroke-linecap="round" stroke-linejoin="round"/>
<path d="M0.763672 16.5732H3.92567" stroke="#999999" stroke-width="1.44" stroke-miterlimit="22.9256" stroke-linecap="round" stroke-linejoin="round"/>
<path d="M5.8877 28.7851L8.06838 26.6044" stroke="#999999" stroke-width="1.44" stroke-miterlimit="22.9256" stroke-linecap="round" stroke-linejoin="round"/>
<path d="M13.7383 18.7539L17.1183 23.4424L22.243 14.5016" stroke="#999999" stroke-width="1.44" stroke-miterlimit="22.9256" stroke-linecap="round" stroke-linejoin="round"/>
</g>
<defs>
<clipPath id="clip0">
<rect width="35" height="38.4891" fill="white"/>
</clipPath>
</defs>
</svg>

<?xml version="1.0" encoding="utf-8"?>
<!-- Generator: Adobe Illustrator 24.1.0, SVG Export Plug-In . SVG Version: 6.00 Build 0)  -->
<svg version="1.1" id="Layer_1" xmlns="http://www.w3.org/2000/svg" xmlns:xlink="http://www.w3.org/1999/xlink" x="0px" y="0px"
	 viewBox="0 0 35 39" style="enable-background:new 0 0 35 39;" xml:space="preserve">
<style type="text/css">
	.st0{clip-path:url(#SVGID_2_);}
	.st1{fill:none;stroke:#FFFFFF;stroke-width:1.44;stroke-linecap:round;stroke-linejoin:round;stroke-miterlimit:22.9256;}
</style>
<g>
	<defs>
		<rect id="SVGID_1_" width="35" height="38.5"/>
	</defs>
	<clipPath id="SVGID_2_">
		<use xlink:href="#SVGID_1_"  style="overflow:visible;"/>
	</clipPath>
	<g class="st0">
		<path class="st1" d="M13,28.7c-0.4-6.2-5.2-3.1-5.8-11.4c-0.3-5.3,4.6-9.6,10.2-9.6c5.7,0,10.6,4.4,10.2,9.6
			c-0.5,7.2-4,5.8-5.3,9.5"/>
		<path class="st1" d="M13.2,36l9.2-2.4"/>
		<path class="st1" d="M13.2,32.5l9.2-2.4"/>
		<path class="st1" d="M13.2,29l9.2-2.4"/>
		<path class="st1" d="M20.8,34.9c0,1.6-1.5,2.8-3.3,2.8c-1.2,0-2.2-0.5-2.7-1.3"/>
		<path class="st1" d="M17.8,0.8v3.2"/>
		<path class="st1" d="M29.1,5.1l-2.3,2.2"/>
		<path class="st1" d="M34.2,17.1h-3.2"/>
		<path class="st1" d="M28.6,28.8l-2.2-2.2"/>
		<path class="st1" d="M6.3,5.1l2.2,2.2"/>
		<path class="st1" d="M0.8,16.6h3.2"/>
		<path class="st1" d="M5.9,28.8l2.2-2.2"/>
		<path class="st1" d="M13.7,18.8l3.4,4.7l5.1-8.9"/>
	</g>
</g>
</svg>
